assets/features/payment-flow/Union Bank Of The Philippines.svg

<svg width="200" height="200" viewBox="0 0 200 200" fill="none" xmlns="http://www.w3.org/2000/svg">
<rect width="200" height="200" rx="40" fill="#FF8000"/>
<path fill-rule="evenodd" clip-rule="evenodd" d="M119.304 102.642C115.193 102.097 113.402 101.877 113.402 101.877V86.9066C114.417 87.1629 121.105 88.8266 121.105 88.8266C125.201 89.6546 127.286 92.7011 127.286 96.3518C127.286 100.003 124.108 103.279 119.304 102.642ZM135.804 108.831C135.804 108.831 140.55 104.006 140.55 94.9177C140.55 87.332 135.55 78.9249 126.743 75.7606L97.7901 65.2566L97.6965 116.628C97.6965 116.628 97.7056 124.068 89.5905 125.641C84.1577 126.694 78.8619 121.665 78.8619 115.414C78.8691 115.415 78.8918 74.9275 78.8697 58.3343L56 50V117.631C56 141.788 77.4318 152.006 90.5983 149.677C106.314 146.896 113.402 134.478 113.402 121.039V116.267L124.49 116.654C128.158 116.654 130.885 119.925 130.885 123.353C130.885 126.393 128.809 129.666 124.536 130.045L118.443 130.52C117.466 134.622 115.349 140.284 110.596 145.942L128.449 142.713C135.639 141.383 144 135 144 124.454C144 119.961 142.515 113.385 135.804 108.831Z" fill="white"/>
</svg>

<svg xmlns="http://www.w3.org/2000/svg" width="200" height="200" fill="none" viewBox="0 0 200 200"><rect width="200" height="200" fill="#ff8000" rx="40"/><path fill="#fff" fill-rule="evenodd" d="M119.304 102.642c-4.111-.545-5.902-.765-5.902-.765v-14.97c1.015.256 7.703 1.92 7.703 1.92 4.096.828 6.181 3.874 6.181 7.525s-3.178 6.927-7.982 6.29m16.5 6.189s4.746-4.825 4.746-13.913c0-7.586-5-15.993-13.807-19.157L97.79 65.257l-.094 51.371s.01 7.44-8.105 9.013c-5.433 1.053-10.73-3.976-10.73-10.227.008.001.03-40.487.009-57.08L56 50v67.631c0 24.157 21.432 34.375 34.598 32.046 15.716-2.781 22.804-15.199 22.804-28.638v-4.772l11.088.387c3.668 0 6.395 3.271 6.395 6.699 0 3.04-2.076 6.313-6.349 6.692l-6.093.475c-.977 4.102-3.094 9.764-7.847 15.422l17.853-3.229C135.639 141.383 144 135 144 124.454c0-4.493-1.485-11.069-8.196-15.623" clip-rule="evenodd"/></svg>
